svg1/book/transport/transport-fig-046-c.svg

<?xml version="1.0" encoding="UTF-8" standalone="no"?>
<!-- Created with Inkscape (http://www.inkscape.org/) -->

<svg
   xmlns:dc="http://purl.org/dc/elements/1.1/"
   xmlns:cc="http://creativecommons.org/ns#"
   xmlns:rdf="http://www.w3.org/1999/02/22-rdf-syntax-ns#"
   xmlns:svg="http://www.w3.org/2000/svg"
   xmlns="http://www.w3.org/2000/svg"
   xmlns:sodipodi="http://sodipodi.sourceforge.net/DTD/sodipodi-0.dtd"
   xmlns:inkscape="http://www.inkscape.org/namespaces/inkscape"
   width="600"
   height="400"
   id="svg18276"
   version="1.1"
   inkscape:version="0.48.1 r9760"
   sodipodi:docname="transport-fig-046-c.svg">
  <defs
     id="defs18278">
    <marker
       inkscape:stockid="Arrow2Mend"
       orient="auto"
       refY="0.0"
       refX="0.0"
       id="Arrow2Mend"
       style="overflow:visible;">
      <path
         id="path18832"
         style="font-size:12.0;fill-rule:evenodd;stroke-width:0.62500000;stroke-linejoin:round;"
         d="M 8.7185878,4.0337352 L -2.2072895,0.016013256 L 8.7185884,-4.0017078 C 6.9730900,-1.6296469 6.9831476,1.6157441 8.7185878,4.0337352 z "
         transform="scale(0.6) rotate(180) translate(0,0)" />
    </marker>
    <marker
       inkscape:stockid="Arrow2Mstart"
       orient="auto"
       refY="0.0"
       refX="0.0"
       id="Arrow2Mstart"
       style="overflow:visible">
      <path
         id="path18829"
         style="font-size:12.0;fill-rule:evenodd;stroke-width:0.62500000;stroke-linejoin:round"
         d="M 8.7185878,4.0337352 L -2.2072895,0.016013256 L 8.7185884,-4.0017078 C 6.9730900,-1.6296469 6.9831476,1.6157441 8.7185878,4.0337352 z "
         transform="scale(0.6) translate(0,0)" />
    </marker>
    <marker
       inkscape:stockid="Arrow1Sstart"
       orient="auto"
       refY="0.0"
       refX="0.0"
       id="Arrow1Sstart"
       style="overflow:visible">
      <path
         id="path18817"
         d="M 0.0,0.0 L 5.0,-5.0 L -12.5,0.0 L 5.0,5.0 L 0.0,0.0 z "
         style="fill-rule:evenodd;stroke:#000000;stroke-width:1.0pt;marker-start:none"
         transform="scale(0.2) translate(6,0)" />
    </marker>
  </defs>
  <sodipodi:namedview
     id="base"
     pagecolor="#ffffff"
     bordercolor="#666666"
     borderopacity="1.0"
     inkscape:pageopacity="0.0"
     inkscape:pageshadow="2"
     inkscape:zoom="1.1196396"
     inkscape:cx="298.96707"
     inkscape:cy="192.70545"
     inkscape:document-units="px"
     inkscape:current-layer="g21296"
     showgrid="false"
     showguides="true"
     inkscape:guide-bbox="true"
     inkscape:window-width="1280"
     inkscape:window-height="675"
     inkscape:window-x="0"
     inkscape:window-y="0"
     inkscape:window-maximized="0" />
  <metadata
     id="metadata18281">
    <rdf:RDF>
      <cc:Work
         rdf:about="">
        <dc:format>image/svg+xml</dc:format>
        <dc:type
           rdf:resource="http://purl.org/dc/dcmitype/StillImage" />
        <dc:title />
      </cc:Work>
    </rdf:RDF>
  </metadata>
  <g
     inkscape:label="Layer 1"
     inkscape:groupmode="layer"
     id="layer1"
     transform="translate(0,-652.36218)">
    <g
       id="g21296">
      <rect
         y="727.72449"
         x="146.92754"
         height="221.0145"
         width="288.40579"
         id="rect19992"
         style="opacity:0.87916667;fill:#efecec;fill-opacity:1;stroke:none" />
      <path
         inkscape:connector-curvature="0"
         id="path18290"
         d="m 145.65217,719.02885 0,258.69565"
         style="fill:none;stroke:#000000;stroke-width:1px;stroke-linecap:butt;stroke-linejoin:miter;stroke-opacity:1;marker-start:url(#Arrow2Mstart)" />
      <path
         inkscape:connector-curvature="0"
         id="path19988"
         d="M 144.92754,845.1158 255.07246,950.18827"
         style="fill:none;stroke:#000000;stroke-width:1px;stroke-linecap:butt;stroke-linejoin:miter;stroke-opacity:1" />
      <path
         inkscape:connector-curvature="0"
         id="path19990"
         d="M 373.35282,729.00936 146.93704,949.62804"
         style="fill:none;stroke:#000000;stroke-width:1;stroke-linecap:butt;stroke-linejoin:miter;stroke-miterlimit:4;stroke-opacity:1;stroke-dasharray:4, 4;stroke-dashoffset:0" />
      <g
         transform="translate(98.550725,-5.7971014)"
         id="g20192">
        <path
           style="fill:#ffffff;fill-opacity:1;stroke:none"
           d="M 48.502416,955.26073 98.550722,903.85228 47.826087,855.26073 z"
           id="path19994"
           inkscape:connector-curvature="0" />
        <path
           inkscape:connector-curvature="0"
           id="path19996"
           d="M 152.89856,953.85977 101.49011,903.81146 52.898557,954.53608 z"
           style="fill:#ffffff;fill-opacity:1;stroke:none" />
      </g>
      <path
         inkscape:connector-curvature="0"
         id="path20002"
         d="m 128.98551,949.46363 311.41406,0"
         style="fill:none;stroke:#000000;stroke-width:0.97185832px;stroke-linecap:butt;stroke-linejoin:miter;stroke-opacity:1;marker-end:url(#Arrow2Mend)" />
      <path
         transform="translate(97.826087,647.28972)"
         d="m 72.463769,214.85507 c 0,3.80196 -3.244314,6.88406 -7.246377,6.88406 -4.002064,0 -7.246377,-3.0821 -7.246377,-6.88406 0,-3.80196 3.244313,-6.88406 7.246377,-6.88406 4.002063,0 7.246377,3.0821 7.246377,6.88406 z"
         sodipodi:ry="6.884058"
         sodipodi:rx="7.246377"
         sodipodi:cy="214.85507"
         sodipodi:cx="65.217392"
         id="path20196"
         style="fill:#cccccc;fill-opacity:1;stroke:#cccccc;stroke-opacity:1"
         sodipodi:type="arc" />
      <path
         sodipodi:type="arc"
         style="fill:#cccccc;fill-opacity:1;stroke:#cccccc;stroke-opacity:1"
         id="path20220"
         sodipodi:cx="65.217392"
         sodipodi:cy="214.85507"
         sodipodi:rx="7.246377"
         sodipodi:ry="6.884058"
         d="m 72.463769,214.85507 c 0,3.80196 -3.244314,6.88406 -7.246377,6.88406 -4.002064,0 -7.246377,-3.0821 -7.246377,-6.88406 0,-3.80196 3.244313,-6.88406 7.246377,-6.88406 4.002063,0 7.246377,3.0821 7.246377,6.88406 z"
         transform="translate(134.05797,682.07233)" />
      <path
         transform="translate(205.7971,689.31871)"
         d="m 72.463769,214.85507 c 0,3.80196 -3.244314,6.88406 -7.246377,6.88406 -4.002064,0 -7.246377,-3.0821 -7.246377,-6.88406 0,-3.80196 3.244313,-6.88406 7.246377,-6.88406 4.002063,0 7.246377,3.0821 7.246377,6.88406 z"
         sodipodi:ry="6.884058"
         sodipodi:rx="7.246377"
         sodipodi:cy="214.85507"
         sodipodi:cx="65.217392"
         id="path20222"
         style="fill:#000000;fill-opacity:1;stroke:#cccccc;stroke-opacity:1"
         sodipodi:type="arc" />
      <path
         transform="translate(100.72464,715.40566)"
         d="m 72.463769,214.85507 c 0,3.80196 -3.244314,6.88406 -7.246377,6.88406 -4.002064,0 -7.246377,-3.0821 -7.246377,-6.88406 0,-3.80196 3.244313,-6.88406 7.246377,-6.88406 4.002063,0 7.246377,3.0821 7.246377,6.88406 z"
         sodipodi:ry="6.884058"
         sodipodi:rx="7.246377"
         sodipodi:cy="214.85507"
         sodipodi:cx="65.217392"
         id="path20224"
         style="fill:#000000;fill-opacity:1;stroke:#cccccc;stroke-opacity:1"
         sodipodi:type="arc" />
      <path
         inkscape:connector-curvature="0"
         id="path20226"
         d="m 140.57971,844.39117 10.14493,0"
         style="fill:none;stroke:#000000;stroke-width:1px;stroke-linecap:butt;stroke-linejoin:miter;stroke-opacity:1" />
      <path
         inkscape:connector-curvature="0"
         id="path20228"
         d="m 254.34782,944.39117 0.72464,7.97101"
         style="fill:none;stroke:#000000;stroke-width:1px;stroke-linecap:butt;stroke-linejoin:miter;stroke-opacity:1" />
      <text
         sodipodi:linespacing="125%"
         id="text20230"
         y="894.72821"
         x="62.538544"
         style="font-size:14px;font-style:normal;font-variant:normal;font-weight:bold;font-stretch:normal;text-align:start;line-height:125%;letter-spacing:0px;word-spacing:0px;writing-mode:lr-tb;text-anchor:start;fill:#000000;fill-opacity:1;stroke:none;font-family:FreeSans;-inkscape-font-specification:FreeSans Bold"
         xml:space="preserve"><tspan
           y="894.72821"
           x="62.538544"
           id="tspan20232"
           sodipodi:role="line">Fairness </tspan><tspan
           id="tspan20234"
           y="912.22821"
           x="62.538544"
           sodipodi:role="line">line</tspan></text>
      <text
         sodipodi:linespacing="125%"
         id="text20236"
         y="837.86945"
         x="82.347816"
         style="font-size:14px;font-style:normal;font-variant:normal;font-weight:bold;font-stretch:normal;text-align:start;line-height:125%;letter-spacing:0px;word-spacing:0px;writing-mode:lr-tb;text-anchor:start;fill:#000000;fill-opacity:1;stroke:none;font-family:FreeSans;-inkscape-font-specification:FreeSans Bold"
         xml:space="preserve"><tspan
           id="tspan20240"
           y="837.86945"
           x="82.347816"
           sodipodi:role="line">2 Mbps</tspan></text>
      <text
         sodipodi:linespacing="125%"
         id="text20244"
         y="710.33319"
         x="113.76811"
         style="font-size:14px;font-style:normal;font-variant:normal;font-weight:bold;font-stretch:normal;text-align:start;line-height:125%;letter-spacing:0px;word-spacing:0px;writing-mode:lr-tb;text-anchor:start;fill:#000000;fill-opacity:1;stroke:none;font-family:FreeSans;-inkscape-font-specification:FreeSans Bold"
         xml:space="preserve"><tspan
           y="710.33319"
           x="113.76811"
           id="tspan20246"
           sodipodi:role="line">Host A Rate</tspan></text>
      <text
         sodipodi:linespacing="125%"
         id="text20248"
         y="964.96747"
         x="412.1503"
         style="font-size:14px;font-style:normal;font-variant:normal;font-weight:bold;font-stretch:normal;text-align:start;line-height:125%;letter-spacing:0px;word-spacing:0px;writing-mode:lr-tb;text-anchor:start;fill:#000000;fill-opacity:1;stroke:none;font-family:FreeSans;-inkscape-font-specification:FreeSans Bold"
         xml:space="preserve"><tspan
           y="964.96747"
           x="412.1503"
           id="tspan20250"
           sodipodi:role="line">Host B Rate</tspan></text>
      <text
         sodipodi:linespacing="125%"
         id="text20252"
         y="867.63019"
         x="290.46182"
         style="font-size:14px;font-style:normal;font-variant:normal;font-weight:bold;font-stretch:normal;text-align:start;line-height:125%;letter-spacing:0px;word-spacing:0px;writing-mode:lr-tb;text-anchor:start;fill:#000000;fill-opacity:1;stroke:none;font-family:FreeSans;-inkscape-font-specification:FreeSans Bold"
         xml:space="preserve"><tspan
           y="867.63019"
           x="290.46182"
           id="tspan20254"
           sodipodi:role="line">Congested</tspan><tspan
           id="tspan20256"
           y="885.13019"
           x="290.46182"
           sodipodi:role="line">region</tspan></text>
      <text
         xml:space="preserve"
         style="font-size:14px;font-style:normal;font-variant:normal;font-weight:bold;font-stretch:normal;text-align:start;line-height:125%;letter-spacing:0px;word-spacing:0px;writing-mode:lr-tb;text-anchor:start;fill:#000000;fill-opacity:1;stroke:none;font-family:FreeSans;-inkscape-font-specification:FreeSans Bold"
         x="247.82608"
         y="966.13031"
         id="text20258"
         sodipodi:linespacing="125%"><tspan
           sodipodi:role="line"
           x="247.82608"
           y="966.13031"
           id="tspan20260">2 Mbps</tspan></text>
      <text
         sodipodi:linespacing="125%"
         id="text20262"
         y="994.3078"
         x="159.87288"
         style="font-size:14px;font-style:normal;font-variant:normal;font-weight:bold;font-stretch:normal;text-align:start;line-height:125%;letter-spacing:0px;word-spacing:0px;writing-mode:lr-tb;text-anchor:start;fill:#000000;fill-opacity:1;stroke:none;font-family:FreeSans;-inkscape-font-specification:FreeSans Bold"
         xml:space="preserve"><tspan
           y="994.3078"
           x="159.87288"
           id="tspan20264"
           sodipodi:role="line">Efficiency line</tspan></text>
      <path
         inkscape:connector-curvature="0"
         id="path20266"
         d="m 183.71951,986.57158 52.78938,-54.64164"
         style="fill:none;stroke:#000000;stroke-width:0.5;stroke-linecap:butt;stroke-linejoin:miter;stroke-opacity:1;marker-end:url(#Arrow2Mend);stroke-miterlimit:4;stroke-dasharray:none" />
      <path
         transform="translate(0,652.36218)"
         inkscape:connector-curvature="0"
         id="path20268"
         d="m 100.03219,249.95172 50.90924,41.08464"
         style="fill:none;stroke:#000000;stroke-width:0.5;stroke-linecap:butt;stroke-linejoin:miter;stroke-opacity:1;marker-end:url(#Arrow2Mend);stroke-miterlimit:4;stroke-dasharray:none" />
    </g>
  </g>
</svg>

<?xml version="1.0" encoding="UTF-8" standalone="no"?>
<!-- Created with Inkscape (http://www.inkscape.org/) -->
<svg id="svg18276" xmlns:rdf="http://www.w3.org/1999/02/22-rdf-syntax-ns#" xmlns="http://www.w3.org/2000/svg" height="400" width="600" version="1.1" xmlns:cc="http://creativecommons.org/ns#" xmlns:dc="http://purl.org/dc/elements/1.1/">
 <defs id="defs18278">
  <marker id="Arrow2Mend" refY="0.0" refX="0.0" orient="auto" overflow="visible">
   <path id="path18832" stroke-linejoin="round" d="m8.7186 4.0337l-10.926-4.0177 10.926-4.0177c-1.7455 2.3721-1.7355 5.6174 0 8.0354z" fill-rule="evenodd" transform="scale(.6) rotate(180) translate(0)" stroke-width=".625"/>
  </marker>
  <marker id="Arrow2Mstart" refY="0.0" refX="0.0" orient="auto" overflow="visible">
   <path id="path18829" stroke-linejoin="round" d="m8.7186 4.0337l-10.926-4.0177 10.926-4.0177c-1.7455 2.3721-1.7355 5.6174 0 8.0354z" fill-rule="evenodd" transform="scale(.6) translate(0)" stroke-width=".625"/>
  </marker>
 </defs>
 <metadata id="metadata18281">
  <rdf:RDF>
   <cc:Work rdf:about="">
    <dc:format>image/svg+xml</dc:format>
    <dc:type rdf:resource="http://purl.org/dc/dcmitype/StillImage"/>
    <dc:title/>
   </cc:Work>
  </rdf:RDF>
 </metadata>
 <g id="layer1" transform="translate(0 -652.36)">
  <g id="g21296">
   <rect id="rect19992" opacity=".87917" height="221.01" width="288.41" y="727.72" x="146.93" fill="#efecec"/>
   <path id="path18290" d="m145.65 719.03v258.7" marker-start="url(#Arrow2Mstart)" stroke="#000" stroke-width="1px" fill="none"/>
   <path id="path19988" d="m144.93 845.12 110.14 105.07" stroke="#000" stroke-width="1px" fill="none"/>
   <path id="path19990" d="m373.35 729.01-226.41 220.62" stroke="#000" stroke-dasharray="4, 4" fill="none"/>
   <g id="g20192" fill="#fff" transform="translate(98.551 -5.7971)">
    <path id="path19994" d="m48.502 955.26 50.049-51.41-50.725-48.59z"/>
    <path id="path19996" d="m152.9 953.86-51.41-50.05-48.591 50.73z"/>
   </g>
   <path id="path20002" marker-end="url(#Arrow2Mend)" d="m128.99 949.46h311.41" stroke="#000" stroke-width=".97186px" fill="none"/>
   <path id="path20196" d="m72.464 214.86c0 3.802-3.2443 6.8841-7.2464 6.8841s-7.2464-3.0821-7.2464-6.8841 3.2443-6.8841 7.2464-6.8841 7.2464 3.0821 7.2464 6.8841z" transform="translate(97.826 647.29)" stroke="#ccc" fill="#ccc"/>
   <path id="path20220" d="m72.464 214.86c0 3.802-3.2443 6.8841-7.2464 6.8841s-7.2464-3.0821-7.2464-6.8841 3.2443-6.8841 7.2464-6.8841 7.2464 3.0821 7.2464 6.8841z" transform="translate(134.06 682.07)" stroke="#ccc" fill="#ccc"/>
   <path id="path20222" d="m72.464 214.86c0 3.802-3.2443 6.8841-7.2464 6.8841s-7.2464-3.0821-7.2464-6.8841 3.2443-6.8841 7.2464-6.8841 7.2464 3.0821 7.2464 6.8841z" transform="translate(205.8 689.32)" stroke="#ccc"/>
   <path id="path20224" d="m72.464 214.86c0 3.802-3.2443 6.8841-7.2464 6.8841s-7.2464-3.0821-7.2464-6.8841 3.2443-6.8841 7.2464-6.8841 7.2464 3.0821 7.2464 6.8841z" transform="translate(100.72 715.41)" stroke="#ccc"/>
   <path id="path20226" d="m140.58 844.39h10.145" stroke="#000" stroke-width="1px" fill="none"/>
   <path id="path20228" d="m254.35 944.39 0.72464 7.971" stroke="#000" stroke-width="1px" fill="none"/>
   <text id="text20230" style="word-spacing:0px;letter-spacing:0px" line-height="125%" font-weight="bold" font-size="14px" y="894.72821" x="62.538544" font-family="FreeSans" xml:space="preserve" fill="#000000"><tspan id="tspan20232" y="894.72821" x="62.538544">Fairness </tspan><tspan id="tspan20234" y="912.22821" x="62.538544">line</tspan></text>
   <text id="text20236" style="word-spacing:0px;letter-spacing:0px" line-height="125%" font-weight="bold" font-size="14px" y="837.86945" x="82.347816" font-family="FreeSans" xml:space="preserve" fill="#000000"><tspan id="tspan20240" y="837.86945" x="82.347816">2 Mbps</tspan></text>
   <text id="text20244" style="word-spacing:0px;letter-spacing:0px" line-height="125%" font-weight="bold" font-size="14px" y="710.33319" x="113.76811" font-family="FreeSans" xml:space="preserve" fill="#000000"><tspan id="tspan20246" y="710.33319" x="113.76811">Host A Rate</tspan></text>
   <text id="text20248" style="word-spacing:0px;letter-spacing:0px" line-height="125%" font-weight="bold" font-size="14px" y="964.96747" x="412.1503" font-family="FreeSans" xml:space="preserve" fill="#000000"><tspan id="tspan20250" y="964.96747" x="412.1503">Host B Rate</tspan></text>
   <text id="text20252" style="word-spacing:0px;letter-spacing:0px" line-height="125%" font-weight="bold" font-size="14px" y="867.63019" x="290.46182" font-family="FreeSans" xml:space="preserve" fill="#000000"><tspan id="tspan20254" y="867.63019" x="290.46182">Congested</tspan><tspan id="tspan20256" y="885.13019" x="290.46182">region</tspan></text>
   <text id="text20258" style="word-spacing:0px;letter-spacing:0px" font-weight="bold" xml:space="preserve" font-size="14px" y="966.13031" x="247.82608" font-family="FreeSans" line-height="125%" fill="#000000"><tspan id="tspan20260" x="247.82608" y="966.13031">2 Mbps</tspan></text>
   <text id="text20262" style="word-spacing:0px;letter-spacing:0px" line-height="125%" font-weight="bold" font-size="14px" y="994.3078" x="159.87288" font-family="FreeSans" xml:space="preserve" fill="#000000"><tspan id="tspan20264" y="994.3078" x="159.87288">Efficiency line</tspan></text>
   <path id="path20266" marker-end="url(#Arrow2Mend)" d="m183.72 986.57 52.789-54.642" stroke="#000" stroke-width=".5" fill="none"/>
   <path id="path20268" marker-end="url(#Arrow2Mend)" d="m100.03 249.95 50.909 41.085" transform="translate(0 652.36)" stroke="#000" stroke-width=".5" fill="none"/>
  </g>
 </g>
</svg>
